X: 9
T:Broom Dance
M:4/4
L:1/8
C:Trad
K:G
|:G4 G2B2|d2B2 G2B2|c2B2 c2e2|d2B2 G2B2|
|c4 e2c2 |B4 d2B2|A4 A2B2|c2B2 A2B2|
|G4 G2B2 |d2B2 G2B2|c2B2 c2e2|d4 def2|
|g2f2 g2e2 |d2c2 B2A2|B4 G4|G8 :|
|:g4 g4|g4 a2g2|f4 f4|f4 a2f2|
|e4 e4|e2d2 e2f2|g2f2 e2d2|
|B8|G4 G2B2 | d2B2 G2B2 |c2B2 c2e2|
|d4 def2|g2f2 g2e2|d2c2 B2A2|B4 G2G2:|
